public/creditcart.svg

<svg width="24" height="24" xmlns="http://www.w3.org/2000/svg" fill-rule="evenodd" clip-rule="evenodd"><path d="M22 3c.53 0 1.039.211 1.414.586s.586.884.586 1.414v14c0 .53-.211 1.039-.586 1.414s-.884.586-1.414.586h-20c-.53 0-1.039-.211-1.414-.586s-.586-.884-.586-1.414v-14c0-.53.211-1.039.586-1.414s.884-.586 1.414-.586h20zm1 8h-22v8c0 .552.448 1 1 1h20c.552 0 1-.448 1-1v-8zm-15 5v1h-5v-1h5zm13-2v1h-3v-1h3zm-10 0v1h-8v-1h8zm-10-6v2h22v-2h-22zm22-1v-2c0-.552-.448-1-1-1h-20c-.552 0-1 .448-1 1v2h22z"/></svg>

<svg xmlns="http://www.w3.org/2000/svg" width="24" height="24" fill-rule="evenodd" clip-rule="evenodd"><path fill="#ffffff" d="M22 3a2 2 0 0 1 2 2v14a2 2 0 0 1-2 2H2a2 2 0 0 1-2-2V5a2 2 0 0 1 2-2zm1 8H1v8a1 1 0 0 0 1 1h20a1 1 0 0 0 1-1zM8 16v1H3v-1zm13-2v1h-3v-1zm-10 0v1H3v-1zM1 8v2h22V8zm22-1V5a1 1 0 0 0-1-1H2a1 1 0 0 0-1 1v2z"/></svg>
